communes/6119.svg

<?xml version="1.0" encoding="UTF-8"?>
<!DOCTYPE svg  PUBLIC '-//W3C//DTD SVG 1.1//EN'  'http://www.w3.org/Graphics/SVG/1.1/DTD/svg11.dtd'>
<svg version="1.1" viewBox="0 0 125 150" xmlns="http://www.w3.org/2000/svg">
<path d="m0 0v87.5c0 34.62 27.88 62.5 62.5 62.5v-150h-62.5z" fill="#E3E3E3"/>
<path d="m62.5 0v150c34.62 0 62.5-27.88 62.5-62.5v-87.5h-62.5z" fill="#bbb"/>
<path d="m72.87 109.14c0 5.99-5.1 10.86-11.39 10.86-6.28 0-11.39-4.87-11.39-10.86s5.11-10.86 11.39-10.86c6.29 0 11.39 4.87 11.39 10.86zm-10.62-89.14h1.34c7.52 0 13.8 2 18.81 5.97 5.06 3.97 7.6 9.24 7.6 15.81 0 4.5-0.93 8.31-2.78 11.44-1.81 3.09-5.05 6.74-9.69 10.94-4.6 4.19-7.58 7.65-8.97 10.43s-2.09 5.82-2.09 9.13c0 0.7 0.32 2.56 0.97 5.56h-13.32l-1.31-3.37c-0.74-1.95-1.12-3.64-1.12-5.1 0-2.78 0.4-5.44 1.18-8 0.84-2.56 2.05-4.95 3.63-7.15 1.58-2.25 4.7-5.83 9.34-10.72 4.69-4.9 7.03-8.92 7.03-12.1 0-6.17-4.25-9.28-12.75-9.28-4.13 0-8.43 1.98-12.93 5.91l-7.19-12.78c5.71-4.25 13.13-6.49 22.25-6.69z" fill="#fff"/>
</svg>

<?xml version="1.0" encoding="UTF-8" standalone="no"?>
<!DOCTYPE svg PUBLIC "-//W3C//DTD SVG 1.1//EN" "http://www.w3.org/Graphics/SVG/1.1/DTD/svg11.dtd">
<svg xmlns:svg="http://www.w3.org/2000/svg" xmlns="http://www.w3.org/2000/svg" version="1.1" width="125" height="150">
  <path d="M 0,0 L 0,87.5 C 0,122.12 27.88,150 62.5,150 L 62.5,0 L 0,0 z " style="fill:#E3E3E3; fill-opacity:1; fill-rule:nonzero; stroke:none; stroke-width:3.5; stroke-linecap:round; stroke-linejoin:miter; stroke-miterlimit:4; stroke-dasharray:none; stroke-dashoffset:0;stroke-opacity:1"/>
  <path d="M 62.5,0 L 62.5,150 C 97.12,150 125,122.12 125,87.5 L 125,0 L 62.5,0 z " style="fill:#BBBBBB; fill-opacity:1; fill-rule:nonzero; stroke:none; stroke-width:3.5; stroke-linecap:round; stroke-linejoin:miter; stroke-miterlimit:4; stroke-dasharray:none; stroke-dashoffset:0;stroke-opacity:1"/>
  <path d="M 72.87,109.14 C 72.87,115.13 67.77,120 61.48,120 C 55.2,120 50.09,115.13 50.09,109.14 C 50.09,103.15 55.2,98.28 61.48,98.28 C 67.77,98.28 72.87,103.15 72.87,109.14 z M 62.25,20 L 63.59,20 C 71.11,20 77.39,22 82.4,25.97 C 87.46,29.94 90,35.21 90,41.78 C 90,46.28 89.07,50.09 87.22,53.22 C 85.41,56.31 82.17,59.96 77.53,64.16 C 72.93,68.35 69.95,71.81 68.56,74.59 C 67.17,77.37 66.47,80.41 66.47,83.72 C 66.47,84.42 66.79,86.28 67.44,89.28 L 54.12,89.28 L 52.81,85.91 C 52.07,83.96 51.69,82.27 51.69,80.81 C 51.69,78.03 52.09,75.37 52.87,72.81 C 53.71,70.25 54.92,67.86 56.5,65.66 C 58.08,63.41 61.2,59.83 65.84,54.94 C 70.53,50.04 72.87,46.02 72.87,42.84 C 72.87,36.67 68.62,33.56 60.12,33.56 C 55.99,33.56 51.69,35.54 47.19,39.47 L 40,26.69 C 45.71,22.44 53.13,20.2 62.25,20 z " style="fill:#FFFFFF; fill-opacity:1; fill-rule:nonzero; stroke:none; stroke-width:3.5; stroke-linecap:round; stroke-linejoin:miter; stroke-miterlimit:4; stroke-dashoffset:0; stroke-opacity:1"/>
</svg>
